**kern	**kern	**kern	**kern
*staff3	*staff4	*staff1	*staff2
*clefF4	*clefF4	*clefG2	*clefG2
*k[f#c#]	*k[f#c#]	*k[f#c#]	*k[f#c#]
*M2/4	*M2/4	*M2/4	*M2/4
*D:	*D:	*D:	*D:
=-	=-	=-	=-
8gL	4r	(8.ggL	2r
(8gJ	.	.	.
.	.	16eeJk	.
8eL	(4B-	[4ccc#)	.
8gJ	.	.	.
=217	=217	=217	=217
8eL	2A)	4ccc#]	2r
8gJ	.	.	.
8fL	.	(8.dddL	.
8dJ)	.	.	.
.	.	16aaJk)	.
=218	=218	=218	=218
8gL	4r	(8.ggL	2r
(8gJ	.	.	.
.	.	16eeJk	.
8eL	(4B-	[4ccc#)	.
8gJ	.	.	.
=219	=219	=219	=219
8eL	2A)	4ccc#]	2r
8gJ	.	.	.
8fL	.	(8.dddL	.
[8dJ) [8f	.	.	.
.	.	16eeeJk)	.
=220	=220	=220	=220
4.d;] 4.f;]	4.G#; 4.B;	4.fff;	2r
8r	8r	(8eee	.
=221	=221	=221	=221
2r	8r	8dddL	2r
*	*clefF4	*	*
.	8G 8B- 8e	8ccc#J)	.
.	8r	8r	.
.	(8F 8d	(8ddd	.
=222	=222	=222	=222
2r	8GL 8e	8bb-L)	2r
.	8A'J) 8d' 8f'	8aa'J	.
.	8r	8r	.
.	(8A 8e 8g	(8cc#	.
=223	=223	=223	=223
2r	4d') 4f'	8dd')	2r
.	.	8r	.
.	8D'	4r	.
.	8r	.	.
=224	=224	=224	=224
*-	*-	*-	*-
